!! 00000] TT[WS
!!!OTL: Jinnian lieshi ge
!!!ARE: Asia, China, Shanxi Zuoquan
!! Ethnic Group: Han
!! WII, 257
!!!SCT: J0783
!!!YEM: Copyright 1995, estate of Helmut Schaffrath.
**kern
*ICvox
*Ivox
*M2/4
*k[f#]
*G:
{4b
8b
8b
=1
8a
8b
8dd
8ee
=2
2g
=3
8a
8b
8a
8g
=4
2e}
=5
{8dd
8ee
8gg
16ee
16gg
=6
2dd
=7
8ee
8gg
8ee
8dd
=8
2cc}
=9
{8b
8dd
8a
8b
=10
8dd
8ee
8dd
8ee
=11
8g
8e
8g
8g
=12
8a
8b
8a
8g
=13
8e
8g
8f#
8e
=14
2d}
=15
{8dd
8dd
8.dd
16a
=16
8g
16a
16g
4f#
=17
8a
8b
8e
8g
=18
2a}
=19
{8dd
8dd
8b
8a
=20
8dd
8gg
8ee
8dd
=21
8a
8b
8ee
8dd
=22
2b}
=23
{8a
8b
8dd
8ee
=24
2g
=25
8a
8b
8a
8g
=26
2e}
==
!!!AGN: Xiaodiao. XÅshi, Xinminge
!!!ONB: ESAC (Essen Associative Code) Database: CHINA
!!!AMT: simple duple
!!!AIN: vox
!!!EED: Helmut Schaffrath
!!!EEV: 1.0
*-
